X: 592
T: Nao wugeng
%%abc-version 2.0
%%abcx-abcm2ps-target-version 5.9.1 (29 Sep 2008)
%%abc-creator hum2abc beta
%%abcx-conversion-date 2013/10/02 07:52:30
%%abc-edited-by Helmut Schaffrath
%%humdrum-veritas 2785832032
%%humdrum-veritas-data 4105052181
%%continueall 1
%%barnumbers 0
L: 1/8
M: 2/4
K: A
B2F2 [I:setbarnb 1]| 
B2F2 | 
B A B c | 
B FE2 | 
F c A c | 
B FA2 | 
A F A F | 
E DB,2 | 
B AF2 | 
B AF2 | 
B A B c | 
B FE2 | 
E FA2 | 
G EF2 | 
E F E F | 
FA2C | 
B,4 |]  



